findly-builder/apps/searchassist/src/assets/icons/search-experience/Union.svg

<svg width="18" height="18" viewBox="0 0 18 18" fill="none" xmlns="http://www.w3.org/2000/svg">
<path d="M4.55769 7.1259C4.55769 6.42188 5.12785 5.85667 5.82692 5.85667C6.52599 5.85667 7.09615 6.42188 7.09615 7.1259C7.09615 7.82497 6.52599 8.39513 5.82692 8.39513C5.12785 8.39513 4.55769 7.82497 4.55769 7.1259Z" fill="#202124"/>
<path d="M10.9038 7.1259C10.9038 6.42188 11.474 5.85667 12.1731 5.85667C12.8721 5.85667 13.4423 6.42188 13.4423 7.1259C13.4423 7.82497 12.8721 8.39513 12.1731 8.39513C11.474 8.39513 10.9038 7.82497 10.9038 7.1259Z" fill="#202124"/>
<path d="M5.17819 11.8171C5.05114 11.6953 4.97703 11.5259 4.97173 11.3513C4.96114 11.0707 5.12525 10.8113 5.38464 10.7054C5.64404 10.5943 5.94049 10.6525 6.13636 10.8589C6.87218 11.5895 7.88329 12.0447 9.00556 12.0447C10.1278 12.0447 11.1389 11.5895 11.8748 10.8589C12.1395 10.5943 12.5682 10.5943 12.8329 10.8589C13.0976 11.1236 13.0976 11.5524 12.8329 11.8171C11.8536 12.7912 10.4984 13.3999 9.00556 13.3999C7.51273 13.3999 6.15753 12.7912 5.17819 11.8171Z" fill="#202124"/>
<path fill-rule="evenodd" clip-rule="evenodd" d="M0.75 9C0.75 4.45358 4.45358 0.75 9 0.75C13.5464 0.75 17.25 4.45358 17.25 9C17.25 13.5464 13.5464 17.25 9 17.25C4.45358 17.25 0.75 13.5464 0.75 9ZM15.9808 9C15.9808 5.13777 12.8622 2.01923 9 2.01923C5.13777 2.01923 2.01923 5.13777 2.01923 9C2.01923 12.8622 5.13777 15.9808 9 15.9808C12.8622 15.9808 15.9808 12.8622 15.9808 9Z" fill="#202124"/>
</svg>

<svg width="18" height="18" fill="none" xmlns="http://www.w3.org/2000/svg"><path d="M4.558 7.126a1.269 1.269 0 1 1 2.537-.002 1.269 1.269 0 0 1-2.537.002Zm6.346 0a1.269 1.269 0 1 1 2.537-.001 1.269 1.269 0 0 1-2.537 0Zm-5.726 4.691a.677.677 0 0 1-.206-.466.67.67 0 0 1 .413-.646.667.667 0 0 1 .751.154 4.058 4.058 0 0 0 2.87 1.186 4.058 4.058 0 0 0 2.869-1.186.677.677 0 1 1 .958.958 5.419 5.419 0 0 1-7.655 0Z" fill="#202124"/><path fill-rule="evenodd" clip-rule="evenodd" d="M.75 9C.75 4.454 4.454.75 9 .75c4.546 0 8.25 3.704 8.25 8.25 0 4.546-3.704 8.25-8.25 8.25C4.454 17.25.75 13.546.75 9Zm15.23 0A6.972 6.972 0 0 0 9 2.02 6.972 6.972 0 0 0 2.02 9 6.972 6.972 0 0 0 9 15.98 6.972 6.972 0 0 0 15.98 9Z" fill="#202124"/></svg>
